lib/icons-source/user-plus.svg

<svg width="25" height="25" viewBox="0 0 25 25" fill="none" xmlns="http://www.w3.org/2000/svg">
<g clip-path="url(#clip0_1_65)">
<rect width="25" height="25" fill="white"/>
<path d="M25 20.1172C25 20.6566 24.5628 21.0938 24.0234 21.0938H21.0938V24.0234C21.0938 24.5628 20.6566 25 20.1172 25C19.5778 25 19.1406 24.5628 19.1406 24.0234V21.0938H16.2109C15.6715 21.0938 15.2344 20.6566 15.2344 20.1172C15.2344 19.5778 15.6715 19.1406 16.2109 19.1406H19.1406V16.2109C19.1406 15.6715 19.5778 15.2344 20.1172 15.2344C20.6566 15.2344 21.0938 15.6715 21.0938 16.2109V19.1406H24.0234C24.5628 19.1406 25 19.5778 25 20.1172ZM17.1875 24.0234C17.1875 24.5628 16.7503 25 16.2109 25H2.92969C1.31416 25 0 23.6858 0 22.0703V20.2637C0 18.5783 0.722885 16.9769 1.98307 15.8697C3.00331 14.9731 4.9572 13.6442 8.09822 12.9536C6.38161 11.6312 5.27344 9.55601 5.27344 7.22656C5.27344 3.24192 8.51536 0 12.5 0C16.4846 0 19.7266 3.24192 19.7266 7.22656C19.7266 11.2112 16.4846 14.4531 12.5 14.4531C7.13367 14.4531 4.25892 16.4698 3.27225 17.3368C2.43397 18.0735 1.95312 19.1401 1.95312 20.2637V22.0703C1.95312 22.6088 2.39124 23.0469 2.92969 23.0469H16.2109C16.7503 23.0469 17.1875 23.484 17.1875 24.0234ZM12.5 12.5C15.4078 12.5 17.7734 10.1343 17.7734 7.22656C17.7734 4.31881 15.4078 1.95312 12.5 1.95312C9.59225 1.95312 7.22656 4.31881 7.22656 7.22656C7.22656 10.1343 9.59225 12.5 12.5 12.5Z" fill="black"/>
</g>
<defs>
<clipPath id="clip0_1_65">
<rect width="25" height="25" fill="white"/>
</clipPath>
</defs>
</svg>

<svg viewBox="0 0 25 25" fill="none" xmlns="http://www.w3.org/2000/svg"><rect fill="white"/><path d="M25 20.117c0 .54-.437.977-.977.977h-2.93v2.93a.977.977 0 1 1-1.952 0v-2.93h-2.93a.976.976 0 1 1 0-1.953h2.93v-2.93a.976.976 0 1 1 1.953 0v2.93h2.93c.539 0 .976.437.976.976m-7.812 3.906c0 .54-.438.977-.977.977H2.93A2.933 2.933 0 0 1 0 22.07v-1.806c0-1.686.723-3.287 1.983-4.394 1.02-.897 2.974-2.226 6.115-2.916a7.22 7.22 0 0 1-2.825-5.727C5.273 3.242 8.515 0 12.5 0s7.227 3.242 7.227 7.227c0 3.984-3.242 7.226-7.227 7.226-5.366 0-8.241 2.017-9.228 2.884a3.9 3.9 0 0 0-1.319 2.927v1.806c0 .539.438.977.977.977h13.28c.54 0 .977.437.977.976M12.5 12.5a5.28 5.28 0 0 0 5.273-5.273A5.28 5.28 0 0 0 12.5 1.953a5.28 5.28 0 0 0-5.273 5.274A5.28 5.28 0 0 0 12.5 12.5" fill="black"/></svg>
